app/public/dtpr-icons/personal.svg

<svg xmlns="http://www.w3.org/2000/svg" width="36" height="36" fill="none"><rect width="32" height="32" x="2" y="2" stroke="#000" stroke-width="2" rx="16"/><path fill="#000" d="M18 18c2.21 0 4-1.79 4-4s-1.79-4-4-4-4 1.79-4 4 1.79 4 4 4m0 2c-2.67 0-8 1.34-8 4v2h16v-2c0-2.66-5.33-4-8-4"/></svg>

<svg width="36" height="36" viewBox="0 0 36 36" fill="none" xmlns="http://www.w3.org/2000/svg">
<rect x="2" y="2" width="32" height="32" rx="16" stroke="black" stroke-width="2"/>
<path d="M18 18C20.21 18 22 16.21 22 14C22 11.79 20.21 10 18 10C15.79 10 14 11.79 14 14C14 16.21 15.79 18 18 18ZM18 20C15.33 20 10 21.34 10 24V26H26V24C26 21.34 20.67 20 18 20Z" fill="black"/>
</svg>
